src/svg/bed-sharp.svg

<svg xmlns="http://www.w3.org/2000/svg" class="ionicon" viewBox="0 0 512 512"><title>Bed</title><path d="M432 224V96a16 16 0 00-16-16H96a16 16 0 00-16 16v128a48 48 0 00-48 48v160h36v-32h376v32h36V272a48 48 0 00-48-48zm-192 0H120v-32a16 16 0 0116-16h88a16 16 0 0116 16zm32-32a16 16 0 0116-16h88a16 16 0 0116 16v32H272z" fill="currentColor"/></svg>

<svg xmlns="http://www.w3.org/2000/svg" width="512" height="512" viewBox="0 0 512 512"><title>ionicons-v5-g</title><path d="M432,224V96a16,16,0,0,0-16-16H96A16,16,0,0,0,80,96V224a48,48,0,0,0-48,48V432H68V400H444v32h36V272A48,48,0,0,0,432,224Zm-192,0H120V192a16,16,0,0,1,16-16h88a16,16,0,0,1,16,16Zm32-32a16,16,0,0,1,16-16h88a16,16,0,0,1,16,16v32H272Z"/></svg>
